X: 42
T:Wrights Humour
M:3/4
L:1/4
S:ps
K:G
G,g2|Df2|Ce2|B,d2|A,c2|FD>A|B/c/A2|GG,2||
G,g/f/g|Df/e/f|Cc/d/e|B,B/c/d|A,A/B/c|FBc/d/|GGF|GG,2||
L:1/8
dBGBAG|DFAFED|CEGEDC|B,BdBcd|GEGcdA|BFGFGA|BcA4|G2G,4||
bgdbag|fdfagf|ecegfe|dcdefg|bagafg|agfgeg|fe^def^d|efgfed|cdedcd|BcdcBd|
cdcBAG|FDEFGB|ecefga|fdefgB|AGD2f2|g2G4||
